Newaita-dark/apps/16/com.github.kjlaw89.archetype.svg

<svg height="16pt" viewBox="0 0 16 16" width="16pt" xmlns="http://www.w3.org/2000/svg" xmlns:xlink="http://www.w3.org/1999/xlink"><linearGradient id="a" gradientUnits="userSpaceOnUse" x1="7.938261" x2="7.938261" y1="14.0169675" y2="14.67848943751"><stop offset="0" stop-opacity=".27451"/><stop offset="1" stop-opacity="0"/></linearGradient><linearGradient id="b"><stop offset="0" stop-opacity=".313725"/><stop offset=".222222" stop-opacity=".27451"/><stop offset="1" stop-opacity="0"/></linearGradient><radialGradient id="c" cx="450.90894" cy="189.57936" gradientTransform="matrix(.00000009 -.0390662 -.0703192 -.00000005 26.726845 31.797667)" gradientUnits="userSpaceOnUse" r="21.166656" xlink:href="#b"/><radialGradient id="d" cx="450.90894" cy="189.57936" gradientTransform="matrix(-.00000009 .0390662 .0703192 .00000005 -10.850329 -3.76374)" gradientUnits="userSpaceOnUse" r="21.166656" xlink:href="#b"/><radialGradient id="e" cx="450.90894" cy="189.57936" gradientTransform="matrix(-.00000009 -.0390662 .0703192 -.00000005 -10.850329 31.797667)" gradientUnits="userSpaceOnUse" r="21.166656" xlink:href="#b"/><radialGradient id="f" cx="450.90894" cy="189.57936" gradientTransform="matrix(.00000009 .0390662 -.0703192 .00000005 26.726845 -3.76374)" gradientUnits="userSpaceOnUse" r="21.166656" xlink:href="#b"/><linearGradient id="g"><stop offset="0" stop-color="#7e57c2"/><stop offset="1" stop-color="#9575cd"/></linearGradient><linearGradient id="h" gradientTransform="matrix(.0376748 0 0 .108706 -2.927007 16.820674)" gradientUnits="userSpaceOnUse" x1="306.91666" x2="305.95456" xlink:href="#g" y1="-25.791676" y2="-135.32916"/><linearGradient id="i" gradientTransform="matrix(4.556143 0 0 13.146184 -353.97266 2034.1802)" gradientUnits="userSpaceOnUse" x1="306.91666" x2="305.95456" xlink:href="#g" y1="-25.791676" y2="-135.32916"/><linearGradient id="j" gradientUnits="userSpaceOnUse" x1="333.37491475" x2="333.37491475" y1="-121.04159841667" y2="-89.29164325"><stop offset="0" stop-color="#66bb6a"/><stop offset="1" stop-color="#81c784"/></linearGradient><linearGradient id="k" gradientUnits="userSpaceOnUse" x1="386.29150925" x2="386.29150925" y1="-121.04167558333" y2="-89.29163575"><stop offset="0" stop-color="#ffd54f"/><stop offset="1" stop-color="#ffe082"/></linearGradient><linearGradient id="l" gradientUnits="userSpaceOnUse" x1="439.2083" x2="439.2083" y1="-121.0416835" y2="-89.291686"><stop offset="0" stop-color="#e57373"/><stop offset="1" stop-color="#ef9a9a"/></linearGradient><linearGradient id="m" gradientUnits="userSpaceOnUse" x1="7.938262" x2="7.938262" y1="12.36316312502" y2="5.7479445625"><stop offset="0" stop-color="#bdbdbd"/><stop offset="1" stop-color="#e0e0e0"/></linearGradient><path d="m2.316406 14.015625h11.246094v.664063h-11.246094zm0 0" fill="url(#a)"/><path d="m13.5625 14.015625h1.320312v-.660156h-1.320312zm0 0" fill="url(#c)"/><path d="m2.316406 14.015625h-1.324218v.664063h1.324218zm0 0" fill="url(#d)"/><path d="m2.316406 14.015625h-1.324218v-.660156h1.324218zm0 0" fill="url(#e)"/><path d="m13.5625 14.015625h1.320312v.664063h-1.320312zm0 0" fill="url(#f)"/><path d="m1.652344 2.109375h12.570312c.367188 0 .660156.296875.660156.660156v10.585938c0 .367187-.292968.660156-.660156.660156h-12.570312c-.363282 0-.660156-.292969-.660156-.660156v-10.585938c0-.363281.296874-.660156.660156-.660156zm0 0" fill="url(#h)"/><path d="m.992188 4.753906h13.890624v.332032h-13.890624zm0 0" fill="#0a0d0e" fill-opacity=".235294"/><path d="m1.652344 14.023438c-.363282 0-.660156-.296876-.660156-.660157v-.171875c0 .363282.296874.660156.660156.660156h12.570312c.367188 0 .660156-.296874.660156-.660156v.171875c0 .363281-.292968.660157-.660156.660157zm0 0" fill-opacity=".235294"/><path d="m199.82344 255.093753c-43.932813 0-79.834897 35.902084-79.834897 79.834897v239.977086h1679.839605v-239.977086c0-43.932813-35.429688-79.834897-79.834897-79.834897zm0 0" fill="url(#i)" stroke="#212121" stroke-linecap="round" stroke-width="11.338583" transform="scale(.00826902)"/><path d="m1.652344 2.148438c-.363282 0-.660156.292968-.660156.660156v.171875c0-.367188.296874-.660157.660156-.660157h12.570312c.367188 0 .660156.292969.660156.660157v-.171875c0-.367188-.292968-.660156-.660156-.660156zm0 0" fill="#fff" fill-opacity=".392157"/><path d="m1.652344 2.0625c-.390625 0-.707032.316406-.707032.707031v10.585938c0 .390625.316407.707031.707032.707031h12.570312c.390625 0 .707032-.316406.707032-.707031v-10.585938c0-.390625-.316407-.707031-.707032-.707031zm0 .09375h12.570312c.339844 0 .613282.273438.613282.613281v10.585938c0 .339843-.273438.613281-.613282.613281h-12.570312c-.339844 0-.613282-.273438-.613282-.613281v-10.585938c0-.339843.273438-.613281.613282-.613281zm0 0" fill="#212121"/><g stroke="#212121" stroke-linecap="round"><path d="m333.343167-121.008976c8.749165 0 15.873484 7.12432 15.873484 15.873484 0 8.749165-7.124319 15.873485-15.873484 15.873485-8.749164 0-15.873484-7.12432-15.873484-15.873485 0-8.749164 7.12432-15.873484 15.873484-15.873484zm0 0" fill="url(#j)" stroke-width="3" transform="matrix(.031253 0 0 .031253 0 6.719392)"/><path d="m386.338107-121.008976c8.749164 0 15.873484 7.12432 15.873484 15.873484 0 8.749165-7.12432 15.873485-15.873484 15.873485-8.874153 0-15.873485-7.12432-15.873485-15.873485 0-8.749164 6.999332-15.873484 15.873485-15.873484zm0 0" fill="url(#k)" stroke-width="3" transform="matrix(.031253 0 0 .031253 0 6.719392)"/><path d="m439.208058-121.008976c8.749164 0 15.873484 7.12432 15.873484 15.873484 0 8.749165-7.12432 15.873485-15.873484 15.873485-8.749165 0-15.873484-7.12432-15.873484-15.873485 0-8.749164 7.124319-15.873484 15.873484-15.873484zm0 0" fill="url(#l)" stroke-width="3" transform="matrix(.031253 0 0 .031253 0 6.719392)"/></g><path d="m8.269531 5.75c-.132812 0-.25.074219-.300781.195312l-2.648438 5.953126c-.097656.21875.0625.464843.300782.464843h.992187c.136719 0 .253907-.082031.308594-.203125l.742187-1.78125h1.152344l.285156 1.707032c.027344.160156.164063.277343.324219.277343h.992188c.207031 0 .363281-.191406.324219-.394531l-1.15625-5.953125c-.03125-.15625-.167969-.265625-.324219-.265625zm.164063 1.320312h.167968l.164063 2.316407h-.828125zm0 0" fill="url(#m)"/><path d="m8.269531 5.789062c-.132812 0-.25.078126-.300781.195313l-2.648438 5.953125c-.027343.066406-.035156.132812-.023437.199219.007813-.027344.015625-.050781.023437-.074219l2.648438-5.953125c.050781-.121094.167969-.195313.300781-.195313h.992188c.15625 0 .292969.109376.324219.265626l1.15625 5.953124v.003907c.007812-.042969.007812-.082031 0-.125l-1.15625-5.957031c-.03125-.152344-.167969-.265626-.324219-.265626zm-.304687 3.636719-.027344.125h.828125l-.007813-.125zm0 0" fill="#fbfbfb"/><path d="m8.433594 7.117188-.496094 2.316406h.042969l.453125-2.109375h.167968l.148438 2.109375h.015625l-.164063-2.316406zm-.769532 3.308593-.742187 1.78125c-.054687.121094-.171875.203125-.308594.203125h-.992187c-.148438 0-.269532-.101562-.3125-.226562-.070313.207031.085937.429687.3125.429687h.992187c.136719 0 .253907-.078125.308594-.203125l.742187-1.78125h1.152344l.285156 1.710938c.027344.15625.164063.273437.324219.273437h.992188c.207031 0 .363281-.1875.324219-.390625l-.007813-.046875c-.042969.132813-.164063.234375-.316406.234375h-.992188c-.160156 0-.296875-.117187-.324219-.277344l-.285156-1.707031zm0 0" fill-opacity=".235294"/><path d="m1000.061992 695.366675c-16.061459 0-30.233334 8.975521-36.37448 23.619792l-320.284379 719.931259c-11.809896 26.454167 7.558334 56.215105 36.37448 56.215105h119.988543c16.533854 0 30.705729-9.920312 37.319271-24.564583l89.75521-215.412503h139.356772l34.484897 206.436982c3.30677 19.368229 19.840625 33.540104 39.208854 33.540104h119.988543c25.03698 0 43.932813-23.147396 39.208855-47.711979l-139.829168-719.93126c-3.779167-18.895833-20.313021-32.122917-39.208855-32.122917zm19.840625 159.669794h20.313021l19.840625 280.130733h-100.147918zm0 0" fill="none" stroke="#212121" stroke-linecap="round" stroke-linejoin="round" stroke-width="11.338583" transform="scale(.00826902)"/></svg>

<?xml version="1.0" encoding="UTF-8"?>
<svg xmlns="http://www.w3.org/2000/svg" xmlns:xlink="http://www.w3.org/1999/xlink" width="16pt" height="16pt" viewBox="0 0 16 16" version="1.1">
<defs>
<linearGradient id="linear0" gradientUnits="userSpaceOnUse" x1="254" y1="233.5" x2="254" y2="254.66667" gradientTransform="matrix(0.031253,0,0,0.031253,-0.00000125012,6.719392)">
<stop offset="0" style="stop-color:rgb(0%,0%,0%);stop-opacity:0.27451;"/>
<stop offset="1" style="stop-color:rgb(0%,0%,0%);stop-opacity:0;"/>
</linearGradient>
<radialGradient id="radial0" gradientUnits="userSpaceOnUse" cx="450.90894" cy="189.57936" fx="450.90894" fy="189.57936" r="21.166656" gradientTransform="matrix(0.0000000870852,-0.0390662,-0.0703192,-0.0000000507693,26.726845,31.797667)">
<stop offset="0" style="stop-color:rgb(0%,0%,0%);stop-opacity:0.313725;"/>
<stop offset="0.222222" style="stop-color:rgb(0%,0%,0%);stop-opacity:0.27451;"/>
<stop offset="1" style="stop-color:rgb(0%,0%,0%);stop-opacity:0;"/>
</radialGradient>
<radialGradient id="radial1" gradientUnits="userSpaceOnUse" cx="450.90894" cy="189.57936" fx="450.90894" fy="189.57936" r="21.166656" gradientTransform="matrix(-0.0000000870852,0.0390662,0.0703192,0.0000000507693,-10.850329,-3.76374)">
<stop offset="0" style="stop-color:rgb(0%,0%,0%);stop-opacity:0.313725;"/>
<stop offset="0.222222" style="stop-color:rgb(0%,0%,0%);stop-opacity:0.27451;"/>
<stop offset="1" style="stop-color:rgb(0%,0%,0%);stop-opacity:0;"/>
</radialGradient>
<radialGradient id="radial2" gradientUnits="userSpaceOnUse" cx="450.90894" cy="189.57936" fx="450.90894" fy="189.57936" r="21.166656" gradientTransform="matrix(-0.0000000870852,-0.0390662,0.0703192,-0.0000000507693,-10.850329,31.797667)">
<stop offset="0" style="stop-color:rgb(0%,0%,0%);stop-opacity:0.313725;"/>
<stop offset="0.222222" style="stop-color:rgb(0%,0%,0%);stop-opacity:0.27451;"/>
<stop offset="1" style="stop-color:rgb(0%,0%,0%);stop-opacity:0;"/>
</radialGradient>
<radialGradient id="radial3" gradientUnits="userSpaceOnUse" cx="450.90894" cy="189.57936" fx="450.90894" fy="189.57936" r="21.166656" gradientTransform="matrix(0.0000000870852,0.0390662,-0.0703192,0.0000000507693,26.726845,-3.76374)">
<stop offset="0" style="stop-color:rgb(0%,0%,0%);stop-opacity:0.313725;"/>
<stop offset="0.222222" style="stop-color:rgb(0%,0%,0%);stop-opacity:0.27451;"/>
<stop offset="1" style="stop-color:rgb(0%,0%,0%);stop-opacity:0;"/>
</radialGradient>
<linearGradient id="linear1" gradientUnits="userSpaceOnUse" x1="306.91666" y1="-25.791676" x2="305.95456" y2="-135.32916" gradientTransform="matrix(0.0376748,0,0,0.108706,-2.927007,16.820674)">
<stop offset="0" style="stop-color:rgb(49.411765%,34.117647%,76.078431%);stop-opacity:1;"/>
<stop offset="1" style="stop-color:rgb(58.431373%,45.882353%,80.392157%);stop-opacity:1;"/>
</linearGradient>
<linearGradient id="linear2" gradientUnits="userSpaceOnUse" x1="306.91666" y1="-25.791676" x2="305.95456" y2="-135.32916" gradientTransform="matrix(4.556143,0,0,13.146184,-353.97266,2034.1802)">
<stop offset="0" style="stop-color:rgb(49.411765%,34.117647%,76.078431%);stop-opacity:1;"/>
<stop offset="1" style="stop-color:rgb(58.431373%,45.882353%,80.392157%);stop-opacity:1;"/>
</linearGradient>
<linearGradient id="linear3" gradientUnits="userSpaceOnUse" x1="349.25" y1="-158.08333" x2="349.25" y2="-115.75" gradientTransform="matrix(0.749999,0,0,0.749999,71.437764,-2.479259)">
<stop offset="0" style="stop-color:rgb(40%,73.333333%,41.568627%);stop-opacity:1;"/>
<stop offset="1" style="stop-color:rgb(50.588235%,78.039216%,51.764706%);stop-opacity:1;"/>
</linearGradient>
<linearGradient id="linear4" gradientUnits="userSpaceOnUse" x1="349.25" y1="-158.08333" x2="349.25" y2="-115.75" gradientTransform="matrix(0.750001,0,0,0.750001,124.35366,-2.47902)">
<stop offset="0" style="stop-color:rgb(100%,83.529412%,30.980392%);stop-opacity:1;"/>
<stop offset="1" style="stop-color:rgb(100%,87.843137%,50.980392%);stop-opacity:1;"/>
</linearGradient>
<linearGradient id="linear5" gradientUnits="userSpaceOnUse" x1="349.25" y1="-158.08333" x2="349.25" y2="-115.75" gradientTransform="matrix(0.75,0,0,0.75,177.2708,-2.479186)">
<stop offset="0" style="stop-color:rgb(89.803922%,45.098039%,45.098039%);stop-opacity:1;"/>
<stop offset="1" style="stop-color:rgb(93.72549%,60.392157%,60.392157%);stop-opacity:1;"/>
</linearGradient>
<linearGradient id="linear6" gradientUnits="userSpaceOnUse" x1="254" y1="180.58334" x2="254" y2="-31.083334" gradientTransform="matrix(0.031253,0,0,0.031253,0,6.719392)">
<stop offset="0" style="stop-color:rgb(74.117647%,74.117647%,74.117647%);stop-opacity:1;"/>
<stop offset="1" style="stop-color:rgb(87.843137%,87.843137%,87.843137%);stop-opacity:1;"/>
</linearGradient>
</defs>
<g id="surface1">
<path style=" stroke:none;fill-rule:nonzero;fill:url(#linear0);" d="M 2.316406 14.015625 L 13.5625 14.015625 L 13.5625 14.679688 L 2.316406 14.679688 Z M 2.316406 14.015625 "/>
<path style=" stroke:none;fill-rule:nonzero;fill:url(#radial0);" d="M 13.5625 14.015625 L 14.882812 14.015625 L 14.882812 13.355469 L 13.5625 13.355469 Z M 13.5625 14.015625 "/>
<path style=" stroke:none;fill-rule:nonzero;fill:url(#radial1);" d="M 2.316406 14.015625 L 0.992188 14.015625 L 0.992188 14.679688 L 2.316406 14.679688 Z M 2.316406 14.015625 "/>
<path style=" stroke:none;fill-rule:nonzero;fill:url(#radial2);" d="M 2.316406 14.015625 L 0.992188 14.015625 L 0.992188 13.355469 L 2.316406 13.355469 Z M 2.316406 14.015625 "/>
<path style=" stroke:none;fill-rule:nonzero;fill:url(#radial3);" d="M 13.5625 14.015625 L 14.882812 14.015625 L 14.882812 14.679688 L 13.5625 14.679688 Z M 13.5625 14.015625 "/>
<path style=" stroke:none;fill-rule:nonzero;fill:url(#linear1);" d="M 1.652344 2.109375 L 14.222656 2.109375 C 14.589844 2.109375 14.882812 2.40625 14.882812 2.769531 L 14.882812 13.355469 C 14.882812 13.722656 14.589844 14.015625 14.222656 14.015625 L 1.652344 14.015625 C 1.289062 14.015625 0.992188 13.722656 0.992188 13.355469 L 0.992188 2.769531 C 0.992188 2.40625 1.289062 2.109375 1.652344 2.109375 Z M 1.652344 2.109375 "/>
<path style=" stroke:none;fill-rule:nonzero;fill:rgb(3.921569%,5.098039%,5.490196%);fill-opacity:0.235294;" d="M 0.992188 4.753906 L 14.882812 4.753906 L 14.882812 5.085938 L 0.992188 5.085938 Z M 0.992188 4.753906 "/>
<path style=" stroke:none;fill-rule:nonzero;fill:rgb(0%,0%,0%);fill-opacity:0.235294;" d="M 1.652344 14.023438 C 1.289062 14.023438 0.992188 13.726562 0.992188 13.363281 L 0.992188 13.191406 C 0.992188 13.554688 1.289062 13.851562 1.652344 13.851562 L 14.222656 13.851562 C 14.589844 13.851562 14.882812 13.554688 14.882812 13.191406 L 14.882812 13.363281 C 14.882812 13.726562 14.589844 14.023438 14.222656 14.023438 Z M 1.652344 14.023438 "/>
<path style="fill-rule:nonzero;fill:url(#linear2);stroke-width:11.338583;stroke-linecap:round;stroke-linejoin:miter;stroke:rgb(12.941176%,12.941176%,12.941176%);stroke-opacity:1;stroke-miterlimit:4;" d="M 199.82344 255.093753 C 155.890627 255.093753 119.988543 290.995837 119.988543 334.92865 L 119.988543 574.905736 L 1799.828148 574.905736 L 1799.828148 334.92865 C 1799.828148 290.995837 1764.39846 255.093753 1719.993251 255.093753 Z M 199.82344 255.093753 " transform="matrix(0.00826902,0,0,0.00826902,0,0)"/>
<path style=" stroke:none;fill-rule:nonzero;fill:rgb(100%,100%,100%);fill-opacity:0.392157;" d="M 1.652344 2.148438 C 1.289062 2.148438 0.992188 2.441406 0.992188 2.808594 L 0.992188 2.980469 C 0.992188 2.613281 1.289062 2.320312 1.652344 2.320312 L 14.222656 2.320312 C 14.589844 2.320312 14.882812 2.613281 14.882812 2.980469 L 14.882812 2.808594 C 14.882812 2.441406 14.589844 2.148438 14.222656 2.148438 Z M 1.652344 2.148438 "/>
<path style=" stroke:none;fill-rule:nonzero;fill:rgb(12.941176%,12.941176%,12.941176%);fill-opacity:1;" d="M 1.652344 2.0625 C 1.261719 2.0625 0.945312 2.378906 0.945312 2.769531 L 0.945312 13.355469 C 0.945312 13.746094 1.261719 14.0625 1.652344 14.0625 L 14.222656 14.0625 C 14.613281 14.0625 14.929688 13.746094 14.929688 13.355469 L 14.929688 2.769531 C 14.929688 2.378906 14.613281 2.0625 14.222656 2.0625 Z M 1.652344 2.15625 L 14.222656 2.15625 C 14.5625 2.15625 14.835938 2.429688 14.835938 2.769531 L 14.835938 13.355469 C 14.835938 13.695312 14.5625 13.96875 14.222656 13.96875 L 1.652344 13.96875 C 1.3125 13.96875 1.039062 13.695312 1.039062 13.355469 L 1.039062 2.769531 C 1.039062 2.429688 1.3125 2.15625 1.652344 2.15625 Z M 1.652344 2.15625 "/>
<path style="fill-rule:nonzero;fill:url(#linear3);stroke-width:3;stroke-linecap:round;stroke-linejoin:miter;stroke:rgb(12.941176%,12.941176%,12.941176%);stroke-opacity:1;stroke-miterlimit:4;" d="M 333.343167 -121.008976 C 342.092332 -121.008976 349.216651 -113.884656 349.216651 -105.135492 C 349.216651 -96.386327 342.092332 -89.262007 333.343167 -89.262007 C 324.594003 -89.262007 317.469683 -96.386327 317.469683 -105.135492 C 317.469683 -113.884656 324.594003 -121.008976 333.343167 -121.008976 Z M 333.343167 -121.008976 " transform="matrix(0.031253,0,0,0.031253,0,6.719392)"/>
<path style="fill-rule:nonzero;fill:url(#linear4);stroke-width:3;stroke-linecap:round;stroke-linejoin:miter;stroke:rgb(12.941176%,12.941176%,12.941176%);stroke-opacity:1;stroke-miterlimit:4;" d="M 386.338107 -121.008976 C 395.087271 -121.008976 402.211591 -113.884656 402.211591 -105.135492 C 402.211591 -96.386327 395.087271 -89.262007 386.338107 -89.262007 C 377.463954 -89.262007 370.464622 -96.386327 370.464622 -105.135492 C 370.464622 -113.884656 377.463954 -121.008976 386.338107 -121.008976 Z M 386.338107 -121.008976 " transform="matrix(0.031253,0,0,0.031253,0,6.719392)"/>
<path style="fill-rule:nonzero;fill:url(#linear5);stroke-width:3;stroke-linecap:round;stroke-linejoin:miter;stroke:rgb(12.941176%,12.941176%,12.941176%);stroke-opacity:1;stroke-miterlimit:4;" d="M 439.208058 -121.008976 C 447.957222 -121.008976 455.081542 -113.884656 455.081542 -105.135492 C 455.081542 -96.386327 447.957222 -89.262007 439.208058 -89.262007 C 430.458893 -89.262007 423.334574 -96.386327 423.334574 -105.135492 C 423.334574 -113.884656 430.458893 -121.008976 439.208058 -121.008976 Z M 439.208058 -121.008976 " transform="matrix(0.031253,0,0,0.031253,0,6.719392)"/>
<path style=" stroke:none;fill-rule:nonzero;fill:url(#linear6);" d="M 8.269531 5.75 C 8.136719 5.75 8.019531 5.824219 7.96875 5.945312 L 5.320312 11.898438 C 5.222656 12.117188 5.382812 12.363281 5.621094 12.363281 L 6.613281 12.363281 C 6.75 12.363281 6.867188 12.28125 6.921875 12.160156 L 7.664062 10.378906 L 8.816406 10.378906 L 9.101562 12.085938 C 9.128906 12.246094 9.265625 12.363281 9.425781 12.363281 L 10.417969 12.363281 C 10.625 12.363281 10.78125 12.171875 10.742188 11.96875 L 9.585938 6.015625 C 9.554688 5.859375 9.417969 5.75 9.261719 5.75 Z M 8.433594 7.070312 L 8.601562 7.070312 L 8.765625 9.386719 L 7.9375 9.386719 Z M 8.433594 7.070312 "/>
<path style=" stroke:none;fill-rule:nonzero;fill:rgb(98.431373%,98.431373%,98.431373%);fill-opacity:1;" d="M 8.269531 5.789062 C 8.136719 5.789062 8.019531 5.867188 7.96875 5.984375 L 5.320312 11.9375 C 5.292969 12.003906 5.285156 12.070312 5.296875 12.136719 C 5.304688 12.109375 5.3125 12.085938 5.320312 12.0625 L 7.96875 6.109375 C 8.019531 5.988281 8.136719 5.914062 8.269531 5.914062 L 9.261719 5.914062 C 9.417969 5.914062 9.554688 6.023438 9.585938 6.179688 L 10.742188 12.132812 C 10.742188 12.132812 10.742188 12.132812 10.742188 12.136719 C 10.75 12.09375 10.75 12.054688 10.742188 12.011719 L 9.585938 6.054688 C 9.554688 5.902344 9.417969 5.789062 9.261719 5.789062 Z M 7.964844 9.425781 L 7.9375 9.550781 L 8.765625 9.550781 L 8.757812 9.425781 Z M 7.964844 9.425781 "/>
<path style=" stroke:none;fill-rule:nonzero;fill:rgb(0%,0%,0%);fill-opacity:0.235294;" d="M 8.433594 7.117188 L 7.9375 9.433594 L 7.980469 9.433594 L 8.433594 7.324219 L 8.601562 7.324219 L 8.75 9.433594 L 8.765625 9.433594 L 8.601562 7.117188 Z M 7.664062 10.425781 L 6.921875 12.207031 C 6.867188 12.328125 6.75 12.410156 6.613281 12.410156 L 5.621094 12.410156 C 5.472656 12.410156 5.351562 12.308594 5.308594 12.183594 C 5.238281 12.390625 5.394531 12.613281 5.621094 12.613281 L 6.613281 12.613281 C 6.75 12.613281 6.867188 12.535156 6.921875 12.410156 L 7.664062 10.628906 L 8.816406 10.628906 L 9.101562 12.339844 C 9.128906 12.496094 9.265625 12.613281 9.425781 12.613281 L 10.417969 12.613281 C 10.625 12.613281 10.78125 12.425781 10.742188 12.222656 L 10.734375 12.175781 C 10.691406 12.308594 10.570312 12.410156 10.417969 12.410156 L 9.425781 12.410156 C 9.265625 12.410156 9.128906 12.292969 9.101562 12.132812 L 8.816406 10.425781 Z M 7.664062 10.425781 "/>
<path style="fill:none;stroke-width:11.338583;stroke-linecap:round;stroke-linejoin:round;stroke:rgb(12.941176%,12.941176%,12.941176%);stroke-opacity:1;stroke-miterlimit:4;" d="M 1000.061992 695.366675 C 984.000533 695.366675 969.828658 704.342196 963.687512 718.986467 L 643.403133 1438.917726 C 631.593237 1465.371893 650.961467 1495.132831 679.777613 1495.132831 L 799.766156 1495.132831 C 816.30001 1495.132831 830.471885 1485.212519 837.085427 1470.568248 L 926.840637 1255.155745 L 1066.197409 1255.155745 L 1100.682306 1461.592727 C 1103.989076 1480.960956 1120.522931 1495.132831 1139.89116 1495.132831 L 1259.879703 1495.132831 C 1284.916683 1495.132831 1303.812516 1471.985435 1299.088558 1447.420852 L 1159.25939 727.489592 C 1155.480223 708.593759 1138.946369 695.366675 1120.050535 695.366675 Z M 1019.902617 855.036469 L 1040.215638 855.036469 L 1060.056263 1135.167202 L 959.908345 1135.167202 Z M 1019.902617 855.036469 " transform="matrix(0.00826902,0,0,0.00826902,0,0)"/>
</g>
</svg>
